svg/minimize.svg

<?xml version="1.0" encoding="UTF-8"?>
<svg xmlns="http://www.w3.org/2000/svg" xmlns:xlink="http://www.w3.org/1999/xlink" width="32" height="32" viewBox="0 0 32 32">
<path fill-rule="nonzero" fill="rgb(0%, 0%, 0%)" fill-opacity="1" d="M 28.5 14 L 19.5 14 C 18.667969 14 18 13.332031 18 12.5 L 18 3.5 C 18 2.894531 18.363281 2.34375 18.925781 2.113281 C 19.488281 1.878906 20.132812 2.007812 20.5625 2.4375 L 23.0625 4.9375 L 27.644531 0.355469 C 27.871094 0.125 28.179688 -0.00390625 28.5 -0.00390625 C 28.820312 -0.00390625 29.128906 0.125 29.355469 0.355469 L 31.648438 2.648438 C 31.875 2.875 32.003906 3.179688 32 3.5 C 32 3.820312 31.871094 4.128906 31.644531 4.355469 L 27.0625 8.9375 L 29.5625 11.4375 C 29.992188 11.867188 30.117188 12.511719 29.886719 13.074219 C 29.65625 13.636719 29.105469 14 28.5 14 M 28.5 18 C 29.105469 18 29.65625 18.363281 29.886719 18.925781 C 30.117188 19.488281 29.992188 20.132812 29.5625 20.5625 L 27.0625 23.0625 L 31.648438 27.648438 C 31.875 27.875 32.007812 28.179688 32.007812 28.507812 C 32.007812 28.832031 31.882812 29.132812 31.648438 29.363281 L 29.355469 31.65625 C 29.125 31.875 28.820312 32 28.5 32 C 28.179688 32 27.875 31.875 27.644531 31.644531 L 23.0625 27.0625 L 20.5625 29.5625 C 20.132812 29.992188 19.488281 30.117188 18.925781 29.886719 C 18.367188 29.652344 18.003906 29.105469 18 28.5 L 18 19.5 C 18 18.667969 18.667969 18 19.5 18 Z M 12.5 18 C 13.332031 18 14 18.667969 14 19.5 L 14 28.5 C 14 29.105469 13.636719 29.65625 13.074219 29.886719 C 12.511719 30.117188 11.867188 29.988281 11.4375 29.5625 L 8.9375 27.0625 L 4.355469 31.644531 C 4.128906 31.871094 3.820312 32 3.5 32 C 3.179688 32 2.871094 31.871094 2.644531 31.644531 L 0.355469 29.355469 C 0.128906 29.128906 0 28.820312 -0.00390625 28.5 C 0 28.179688 0.125 27.871094 0.355469 27.644531 L 4.9375 23.0625 L 2.4375 20.5625 C 2.007812 20.132812 1.878906 19.488281 2.113281 18.925781 C 2.34375 18.363281 2.894531 18 3.5 18 Z M 3.5 14 C 2.894531 13.996094 2.351562 13.628906 2.117188 13.070312 C 1.886719 12.511719 2.011719 11.867188 2.4375 11.4375 L 4.9375 8.9375 L 0.355469 4.355469 C 0.125 4.128906 -0.00390625 3.820312 -0.00390625 3.5 C -0.00390625 3.179688 0.125 2.871094 0.355469 2.644531 L 2.644531 0.355469 C 2.871094 0.125 3.175781 -0.00390625 3.5 -0.00390625 C 3.820312 -0.00390625 4.128906 0.125 4.355469 0.355469 L 8.9375 4.9375 L 11.4375 2.4375 C 11.867188 2.007812 12.511719 1.878906 13.074219 2.113281 C 13.636719 2.34375 14 2.894531 14 3.5 L 14 12.5 C 14 13.332031 13.332031 14 12.5 14 Z M 3.5 14 "/>
</svg>

<svg role="img" viewBox="0 0 32 32" xmlns="http://www.w3.org/2000/svg"><path d="M28.5 14h-9c-.832 0-1.5-.668-1.5-1.5v-9c0-.605.363-1.156.926-1.387a1.5 1.5 0 0 1 1.637.325l2.5 2.5L27.645.354a1.2 1.2 0 0 1 1.71 0l2.293 2.293c.227.227.356.532.352.852 0 .32-.129.629-.355.855l-4.582 4.583 2.5 2.5c.43.43.554 1.074.324 1.636-.23.563-.782.926-1.387.926m0 4c.605 0 1.156.363 1.387.926.23.562.105 1.207-.325 1.637l-2.5 2.5 4.586 4.585c.227.227.36.532.36.86 0 .324-.125.625-.36.855l-2.293 2.293c-.23.219-.535.344-.855.344s-.625-.125-.855-.355l-4.582-4.582-2.5 2.5A1.502 1.502 0 0 1 18 28.5l-.001-9.001c0-.832.668-1.5 1.5-1.5Zm-16 0c.832 0 1.5.668 1.5 1.5v9c0 .605-.363 1.156-.926 1.387a1.51 1.51 0 0 1-1.636-.325l-2.5-2.5-4.583 4.583A1.2 1.2 0 0 1 3.5 32c-.32 0-.629-.129-.855-.355l-2.29-2.29a1.22 1.22 0 0 1-.359-.855c.004-.32.129-.629.36-.855l4.582-4.582-2.5-2.5a1.5 1.5 0 0 1-.325-1.637c.23-.563.782-.926 1.387-.926Zm-9-4a1.504 1.504 0 0 1-1.062-2.562l2.5-2.5L.354 4.355a1.2 1.2 0 0 1 0-1.71l2.29-2.29a1.2 1.2 0 0 1 1.71 0l4.583 4.583 2.5-2.5a1.5 1.5 0 0 1 1.636-.325c.563.23.926.782.926 1.387v9c0 .832-.668 1.5-1.5 1.5Zm0 0"/></svg>
